X: 2034
T: Bore.
%R: bourr\'ee
B: Henry Playford "Apollo's Banquet", London 1687 (5th Edition)
F: https://archive.org/details/apollosbanquetco01rugg
Z: 2017 John Chambers <jc:trillian.mit.edu>
M: C|
L: 1/8
K: Dm
% - - - - - - - - - -
fe |\
d2e2 f2g2 | e2^c2 d2e2 |\
f3g g3(f/g/) | a6 :: ag |\
^f2d2 g2gf | e2c2 f2fe |
d2g2 c2f2 | f3e f2fe |\
d2=B2 e2ed | c2=BA a2ag |\
f3e e3d | Hd6 |]
% - - - - - - - - - -

%%sep 1 1 500
%%sep 1 1 500

